packages/Snapp/src/ShareiOSIcon/index.svg

<?xml version="1.0" encoding="UTF-8"?>
<svg width="24px" height="24px" viewBox="0 0 24 24" version="1.1" xmlns="http://www.w3.org/2000/svg" xmlns:xlink="http://www.w3.org/1999/xlink">
    <title>Icons/24/ShareiOS</title>
    <g id="Icons/24/ShareiOS" stroke="none" stroke-width="1" fill="none" fill-rule="evenodd">
        <rect id="Container" fill-opacity="0" fill="#D8D8D8" fill-rule="nonzero" x="0" y="0" width="24" height="24"></rect>
        <path d="M12.7071,2.29289 L15.7071,5.29289 C16.0976,5.68342 16.0976,6.31658 15.7071,6.70711 C15.3166,7.09763 14.6834,7.09763 14.2929,6.70711 L13,5.41421 L13,13.9999992 C13,14.5523 12.5523,14.9999992 12,14.9999992 C11.4477,14.9999992 11,14.5523 11,13.9999992 L11,5.41421 L9.70711,6.70711 C9.31658,7.09763 8.68342,7.09763 8.29289,6.70711 C7.90237,6.31658 7.90237,5.68342 8.29289,5.29289 L11.2929,2.29289 C11.6834,1.902369 12.3166,1.902369 12.7071,2.29289 Z M15,11 C15,10.4477153 15.4477153,10 16,10 L16,10 L16,10 C17.1045695,10 18,10.8954305 18,12 L18,19 C18,20.1045695 17.1045695,21 16,21 L8,21 C6.8954305,21 6,20.1045695 6,19 L6,12 C6,10.8954305 6.8954305,10 8,10 C8.55228475,10 9,10.4477153 9,11 C9,11.5522847 8.55228475,12 8,12 L8,12 L8,12 L8,19 L16,19 L16,12 C15.4477153,12 15,11.5522847 15,11 Z" id="Shape" fill="#404040" fill-rule="nonzero"></path>
    </g>
</svg>

<svg viewBox="0 0 24 24" xmlns="http://www.w3.org/2000/svg" fill="currentColor" focusable="false">
  <path d="M12.707 2.293l3 3a1 1 0 01-1.414 1.414L13 5.414V14a1 1 0 11-2 0V5.414L9.707 6.707a1 1 0 01-1.414-1.414l3-3a1 1 0 011.414 0zM15 11a1 1 0 011-1 2 2 0 012 2v7a2 2 0 01-2 2H8a2 2 0 01-2-2v-7a2 2 0 012-2 1 1 0 010 2v7h8v-7a1 1 0 01-1-1z" fill="none"/>
</svg>
